icons/percent-small.svg

<svg xmlns="http://www.w3.org/2000/svg" width="24" height="24" viewBox="0 0 24 24">
  <path d="M14.2928932,14.2928932 C14.6834175,13.9023689 15.3165825,13.9023689 15.7071068,14.2928932 C16.0976311,14.6834175 16.0976311,15.3165825 15.7071068,15.7071068 C15.3165825,16.0976311 14.6834175,16.0976311 14.2928932,15.7071068 C13.9023689,15.3165825 13.9023689,14.6834175 14.2928932,14.2928932 Z M15.7071068,8.29289322 C16.0675907,8.65337718 16.0953203,9.22060824 15.7902954,9.61289944 L15.7071068,9.70710678 L9.70710678,15.7071068 C9.31658249,16.0976311 8.68341751,16.0976311 8.29289322,15.7071068 C7.93240926,15.3466228 7.90467972,14.7793918 8.20970461,14.3871006 L8.29289322,14.2928932 L14.2928932,8.29289322 C14.6834175,7.90236893 15.3165825,7.90236893 15.7071068,8.29289322 Z M8.29289322,8.29289322 C8.68341751,7.90236893 9.31658249,7.90236893 9.70710678,8.29289322 C10.0976311,8.68341751 10.0976311,9.31658249 9.70710678,9.70710678 C9.31658249,10.0976311 8.68341751,10.0976311 8.29289322,9.70710678 C7.90236893,9.31658249 7.90236893,8.68341751 8.29289322,8.29289322 Z"/>
</svg>

<svg xmlns="http://www.w3.org/2000/svg" viewBox="0 0 24 24">
  <path d="M14.3 14.3a1 1 0 1 1 1.4 1.4 1 1 0 0 1-1.4-1.4zm1.4-6a1 1 0 0 1 .09 1.31l-.08.1-6 6a1 1 0 0 1-1.5-1.32l.08-.1 6-6a1 1 0 0 1 1.42 0zm-7.4 0a1 1 0 1 1 1.4 1.4 1 1 0 0 1-1.4-1.4z"/>
</svg>
